pro/src/icons/full-burger.svg

<svg width="48" height="48" viewBox="0 0 48 48" fill="none" xmlns="http://www.w3.org/2000/svg">
  <path id="icon" fill-rule="evenodd" clip-rule="evenodd"
        d="M4.00006 11C4.00006 9.89543 4.89549 9 6.00006 9L42.0001 9C43.1046 9 44.0001 9.89543 44.0001 11C44.0001 12.1046 43.1046 13 42.0001 13L6.00006 13C4.89549 13 4.00006 12.1046 4.00006 11ZM4 24C4 22.8954 4.89543 22 6 22L42 22C43.1046 22 44 22.8954 44 24C44 25.1046 43.1046 26 42 26L6 26C4.89543 26 4 25.1046 4 24ZM6 35C4.89543 35 4 35.8954 4 37C4 38.1046 4.89543 39 6 39L42 39C43.1046 39 44 38.1046 44 37C44 35.8954 43.1046 35 42 35L6 35Z"
        fill="currentColor"/>
</svg>

<svg xmlns="http://www.w3.org/2000/svg" width="48" height="48" fill="none"><path id="icon" fill="currentColor" fill-rule="evenodd" d="M4 11a2 2 0 0 1 2-2h36a2 2 0 0 1 0 4H6a2 2 0 0 1-2-2m0 13a2 2 0 0 1 2-2h36a2 2 0 1 1 0 4H6a2 2 0 0 1-2-2m2 11a2 2 0 1 0 0 4h36a2 2 0 1 0 0-4z" clip-rule="evenodd"/></svg>
